!!!!SEGMENT: pl-wtm--iii-41-612_karasinski-adam-jozef--walc-eliseum.krn
!!!cenid: 19xx:52
!!!COM: Karasiński, Adam Józef
!!!COM-rismID: pe50045321
!!!CDT: 1868-1920
!!!CNT: Polish
!!!OTL: Walc Eliseum
!!!PDT: 1902
!!!AGN: Secular; Waltz
!!!YEC: Copyright 2022 Narodowy Instytut Fryderyka Chopina (https://polishscores.org)
!!!YEM: License CC-BY-4.0 (https://creativecommons.org/licenses/by/4.0)
!!!SMS-siglum: PL-Wtm
!!!SMS-shelfmark: III.41.612
!!!SMS-variant:
!!!SMS-altvar:
!!!SMS-shelfwork: W
!!!NIFC-rismSourceID: 1001141069
!!!NIFC-rismChildID: 1001141069
!!!NIFC-islandoraID: pl-wtm:20103
!!!URL-pdf-islandora: https://repozytorium.nifc.pl/islandora/object/pl-wtm%3A20103/datastream/PDF/view
!!!URL-scan: https://polish.musicsources.pl/pl/lokalizacje/galeria/druki-muzyczne/17500/2 @EN{Scan on Polish Music Sources Website} @PL{Skany w portalu Dziedzictwo Muzyki Polskiej w otwartym dostępie}
!!!IIIF:
!!!ONB-nifc:
!!!AIN: 2 piano
!!!key: B-
**kern	**kern	**dynam
*part2	*part1	*part1
*staff2	*staff1	*
*I"PIANO.	*I"PIANO.	*
*I'[pf]	*I'[pf]	*
*ICklav	*ICklav	*
*Ipiano	*Ipiano	*
*>[A,A1,A,A2,B,B1,B,B2,C,C1,C,C2,D,D1,D,D2,E]	*>[A,A1,A,A2,B,B1,B,B2,C,C1,C,C2,D,D1,D,D2,E]	*>[A,A1,A,A2,B,B1,B,B2,C,C1,C,C2,D,D1,D,D2,E]
*>A	*>A	*>A
*clefF4	*clefG2	*
*k[b-e-]	*k[b-e-]	*
*B-:	*B-:	*
*M2/4	*M2/4	*
!	!LO:TX:a:t=INTROD.	!
!	!LO:TX:a:B:t=Tempo Polki.	!
4r	4f/	p
=1	=1	=1
!	!LO:TX:b:i:t=scherzando	!
8BB-\L	16dd\LL	.
.	16dd\	.
8F\J 8B- 8d	16cc#X\	.
.	16dd\JJ	.
.	(8qdd/	.
8FF\L	8ff\L)	.
8F\J 8B- 8d	8ff\J	.
=2	=2	=2
.	(8qee-/	.
8C\L	8ff\L)	.
8F\J 8A 8e-	8ff\J	.
8FF\L	16gg\LL	.
.	16ff\	.
8F\J 8A 8e-	16ee-\	.
.	16cc\JJ	.
=3	=3	=3
8BB-\L	8b-\L	.
8F\J 8B- 8d	8b-\J	.
8FF\L	16cc/LL	.
.	16b-/	.
8F\J 8B- 8d	16a/	.
.	16g/JJ	.
=4	=4	=4
8C\L	4.a^/	.
8F\ 8A 8e-	.	.
8F\J 8A 8e-	.	.
8r	8f/	.
!!LO:LB:g=original	!	!
=5	=5	=5
!	!LO:TX:b:Bi:t=cresc._ :problem:dynamics with line extensions	!
8BB-\L	16b-/LL	<
.	16b-/	.
8F\J 8B- 8d	16f/	.
.	16b-/JJ	.
8FF\L	16cc/LL	.
.	16cc/	.
8F\J 8A 8e-	16f/	.
.	16cc/JJ	.
=6	=6	=6
8BB-\L	16dd\LL	.
.	16dd\	.
8F\J 8B- 8d	16b-\	.
.	16dd\JJ	.
8C#X\L	16een\LL	.
.	16ee\	.
8G\J 8A 8en	16a\	.
.	16ee\JJ	.
=7	=7	=7
8D\L	16ff\LL	.
.	16ff\	.
8F\J 8A 8d	16a\	.
.	16ff\JJ	.
8AA\L	16gg\LL	.
.	16gg\	.
8G\J 8A 8en	16a\	.
.	16gg\JJ	[
=8	=8	=8
8D\L	16aa\LL	f
.	16een\	.
8F\J 8A 8d	16ff\	.
.	16gg\JJ	.
4C^:\ 4F: 4A: 4e-:	16aa\LL	.
.	16gg\	.
.	16ff\	.
.	16ee-X\JJ	.
!!LO:LB:g=original	!	!
=9	=9	=9
8BB-\L	16dd\LL	p
.	16dd\	.
8F\J 8B- 8d	16cc#X\	.
.	16dd\JJ	.
.	(8qdd/	.
8FF\L	8ff\L)	.
8F\J 8B- 8d	8ff\J	.
=10	=10	=10
.	(8qee-/	.
8C\L	8ff\L)	.
8F\J 8A 8e-	8ff\J	.
8FF\L	16gg\LL	.
.	16ff\	.
8F\J 8A 8e-	16ee-\	.
.	16cc\JJ	.
=11	=11	=11
8BB-\L	8b-\L	.
8F\J 8B- 8d	8b-\J	.
8FF\L	16dd\LL	.
.	16b-\	.
8F\J 8B- 8d	16a\	.
.	16g\JJ	.
=12	=12	=12
8C\L	4.a^/	.
8F\ 8A 8e-	.	.
8F\J 8A 8e-	.	.
8r	8f/	.
=13	=13	=13
8BB-\L	16b-/LL	.
.	16b-/	.
8F\J 8B- 8d	16a/	.
.	16b-/JJ	.
8AA\L	16cc\LL	.
.	16b-\	.
8A-X\J 8B- 8d	16cc\	.
.	16dd\JJ	.
!!LO:LB:g=original	!	!
=14	=14	=14
8GG\L	16ff\LL	.
.	16ee-\	.
8G\J 8B- 8e-	16dd\	.
.	16ee-\JJ	.
!	!LO:TX:b:i:t=riten.	!
.	(8qeen/	.
8FF#X\L	8bb-\L)	.
.	(8qb-/	.
8F#X\J 8B- 8en	8b-\J) 8bb-	.
=15	=15	=15
.	(8qff/	.
8FF/L 8F	8b-\L) 8bb-	.
8EEn/J 8En	8b-\J 8cc#X 8gg	.
8FF/L 8F	8b-/L 8dd 8ff	.
8GG/J 8G	8c#X/J 8en 8b-	.
=16||	=16||	=16||
*M3/4	*M3/4	*
*	*^	*
!	!	!LO:TX:t=P:problem: błąd wyświetlania VHV - arpeggio	!
!	!LO:TX:a:B:t=Lento.	!	!
2.FF:/ 2.C: 2.A:	4r	2.c:\ 2.e-: 2.f: 2.a:	.
!	!LO:TX:a:i:t=m.d.	!	!
.	2ff/	.	.
=17	=17	=17	=17
2.FF:/ 2.C: 2.F:	4r	2.B-:\ 2.e-: 2.g:	.
!	!LO:TX:a:i:t=m.d.	!	!
.	2ff/	.	.
=18	=18	=18	=18
2.FF:/ 2.C: 2.F:	4r	2.A:\ 2.c: 2.e-: 2.f:	.
!	!LO:TX:a:i:t=m.d.	!	!
.	2ff;</	.	.
*	*v	*v	*
!!LO:PB:g=original	!	!
=19||	=19||	=19||
!	!LO:TX:b:i:t=riten.	!
!	!LO:TX:a:B:t=Walc.	!
4F\	4d/	p
.	(8qf/	.
4G\	4e-/)	.
4F\	4d/	.
=20	=20	=20
*	*^	*
!	!LO:TX:a:i:t=a tempo	!	!
2.CC^/ 2.C	2.F^/ 2.f	4r	.
.	.	4A\ 4e-	.
.	.	4A\ 4e-	.
=21	=21	=21	=21
2.FFF^/ 2.FF	2.F^/ 2.f	4r	.
.	.	4A\ 4e-	.
.	.	4A\ 4e-	.
=22	=22	=22	=22
2.CC^/ 2.C	2.F^>/ 2.f	4r	.
.	.	4A\ 4e-	.
.	.	4A\ 4e-	.
*	*v	*v	*
=23	=23	=23
2.FFF^/ 2.FF	4F/ 4f	.
.	4G/ 4g	.
.	4A/ 4a	.
=24	=24	=24
*	*^	*
2.BBB-^/ 2.BB-	2.B-^/ 2.b-	4r	.
.	.	4d\ 4f	.
.	.	4d\ 4f	.
=25	=25	=25	=25
2.FFF^/ 2.FF	2.B-^/ 2.b-	4r	.
.	.	4d\ 4f	.
.	.	4d\ 4f	.
!!LO:LB:g=original	!	!	!
=26	=26	=26	=26
2.BBB-^/ 2.BB-	[<2.B-^/ [2.b-	4r	.
.	.	4d\ 4f	.
.	.	4d\ 4f	.
*	*v	*v	*
=27	=27	=27
2.FF^/	4B-/] 4b-]	.
.	(8qdd/	.
.	4.cc\)	.
.	8b-\	.
=28	=28	=28
*	*^	*
2.CC^/ 2.C	2.A^/ 2.a	4r	.
.	.	4e-\ 4f	.
.	.	4e-\ 4f	.
=29	=29	=29	=29
2.FF^/	2.A^/ 2.a	4r	.
.	.	4e-\ 4f	.
.	.	4e-\ 4f	.
=30	=30	=30	=30
2.CC^/ 2.C	[<2.A^/ [2.a	4r	.
.	.	4e-\ 4f	.
.	.	4e-\ 4f	.
*	*v	*v	*
=31	=31	=31
2.FF^/	4A/] 4a]	.
.	4B-/ 4b-	.
.	4c/ 4cc	.
=32	=32	=32
*	*^	*
2.BBB-^/ 2.BB-	2.G^/ 2.g	4r	.
.	.	4B-\ 4d	.
.	.	4B-\ 4d	.
=33	=33	=33	=33
2.FFF^/ 2.FF	2.F^/ 2.f	4r	.
.	.	4B-\ 4d	.
.	.	4B-\ 4d	.
!!LO:LB:g=original	!	!	!
=34	=34	=34	=34
2BBB-/ 2BB-	2.F^/ 2.f	4r	.
.	.	4B-\ 4d	.
4r	.	4B-\ 4d	.
*	*v	*v	*
=35	=35	=35
!	!LO:TX:b:i:t=rit.	!
4F^\	4d^/	.
.	8qf/	.
4G^\	4e-^/	.
4F^\	4d^/	.
=36	=36	=36
*	*^	*
!	!LO:TX:a:i:t=a tempo	!	!
2.EE-^/ 2.E-	2.F^/ 2.f	4r	.
.	.	4A\ 4e-	.
.	.	4A\ 4e-	.
=37	=37	=37	=37
2.DD^/ 2.D	2.F^/ 2.f	4r	<
.	.	4G#X\ 4d	.
.	.	4G#\ 4d	.
=38	=38	=38	=38
2.CC^/ 2.C	[<2.F^>/ [2.f	4r	.
.	.	4A\ 4e-	.
.	.	4A\ 4e-	.
*	*v	*v	*
=39	=39	=39
2FFF^/ 2FF	4F/] 4f]	.
.	4G/ 4g	.
4r	4A/ 4a	.
=40	=40	=40
*	*^	*
2.BBB-^/ 2.BB-	2.B-^/ 2.b-	4r	.
.	.	4d\ 4f	.
.	.	4d\ 4f	.
=41	=41	=41	=41
2.AAA^/ 2.AA	2.B-^/ 2.b-	4r	.
.	.	4d\ 4f	.
.	.	4d\ 4f	.
!!LO:LB:g=original	!	!	!
=42	=42	=42	=42
2.GGG^/ 2.GG	[<2.B-^/ [2.b-	4r	.
.	.	4d\ 4g	.
.	.	4d\ 4g	.
*	*v	*v	*
=43	=43	=43
2.FF^/	4B-/] 4b-]	.
.	4.cc^\	.
.	8dd\	.
=44	=44	=44
4DD^/	4a^/	.
4F\ 4A 4d	4r	.
4F\ 4A 4d	4a/	.
=45	=45	=45
4AA/	4a/	.
4F\ 4A 4d	4.een^\	f
4F\ 4A 4d	.	.
.	8ff\	.
=46	=46	=46
*>A1	*>A1	*>A1
4DD/	4a^/	f
4F\ 4A 4d	4r	.
4F\ 4A 4d	[4a/	.
=47	=47	=47
4AA/	4a/]	.
4F\ 4A 4d	(4f/	.
4F\ 4A 4d	4g/	.
=48	=48	=48
4AA/	4a/)	.
!	!LO:TX:b:i:t=legato	!
4G\ 4A 4c	(4en/	.
4G\ 4A 4c	4f/	.
!!LO:LB:g=original	!	!
=49	=49	=49
4AA/	4g/	.
4G\ 4A 4c#X	4.a/	.
4G\ 4A 4c#	.	.
.	8en/)	.
=50	=50	=50
2.DD/ 2.AA 2.F	2.A;:/ 2.d: 2.f: 2.a:	.
=51:|!	=51:|!	=51:|!
*>A2	*>A2	*>A2
4DD/	4a/	.
4F\ 4A 4d	4r	.
4F\ 4A 4d	[4a/	.
=52	=52	=52
4D\	4a/]	.
4F\ 4A 4d	4.a/	.
4F\ 4A 4d	.	.
.	8b-/	.
=53	=53	=53
4AA/	(4a/	.
4G\ 4A 4c#X	4en/	.
4G\ 4A 4c#	4g/)	.
=54	=54	=54
4AA/	(2f/	.
4G\ 4A 4c#X	.	.
4G\ 4A 4c#	4en/)	.
=55	=55	=55
4D\	2.d/	.
4F\ 4A 4d	.	.
4F\ 4A 4d	.	.
=56	=56	=56
2C^:\ 2F: 2A: 2e-:	8r	.
.	8ff\L	<
.	8gg\	.
.	8aa\	.
4r	8bb-\	.
.	8ccc\J	[[
!!LO:PB:g=original	!	!
=57!|:	=57!|:	=57!|:
*>B	*>B	*>B
4BB-/	4bb-'\ 4ddd	fp
4F\ 4B- 4d	4r	.
4F\ 4B- 4d	4bb-'\ 4ddd	.
=58	=58	=58
!	!LO:TX:b:i:t=scherzando	!
4FF/	4aa\ 4ccc	.
4F\ 4B- 4d	4r	.
4F\ 4B- 4d	4gg'\ 4bb-	.
=59	=59	=59
.	(8qaa/	.
4C/	4ccc\)	.
4F\ 4A 4e-	4r	.
4F\ 4A 4e-	4aa'\ 4ccc	.
=60	=60	=60
4FF/	2.gg^\ 2.bb-	.
4F\ 4A 4e-	.	.
4F\ 4A 4e-	.	.
=61	=61	=61
.	(8qaa/	.
4C/	4ccc\)	.
4F\ 4A 4e- 4f	4r	.
4F\ 4A 4e- 4f	4aa'\ 4ccc	.
=62	=62	=62
4FF/	4gg'\ 4bb-	.
4F\ 4A 4e-	4r	.
4F\ 4A 4e-	4ee-'\ 4gg	.
=63	=63	=63
.	(8qgg/	.
4BB-/	4bb-\)	.
4F\ 4B- 4d	4r	.
4F\ 4B- 4d	4gg'\ 4bb-	.
=64	=64	=64
4FF/	4.dd^\ 4.ff	.
4F\ 4B- 4d	.	.
.	8dd\	.
4F\ 4B- 4d	(8cc#X\L	.
.	8dd\J	.
!!LO:LB:g=original	!	!
=65	=65	=65
4BB-/	4gg\)	.
4F\ 4B- 4d	4r	.
4F\ 4B- 4d	[4g^\ [4dd [4gg	.
=66	=66	=66
4BBn/	4g\] 4dd] 4gg]	.
4F\ 4G 4d	4.ff\	.
4F\ 4G 4d	.	.
.	8dd\	.
=67	=67	=67
.	(8qdd/	.
4C/	4ff\)	.
4G\ 4c 4e-	4r	.
4G\ 4c 4e-	4dd\ 4ff	.
=68	=68	=68
4BB-/	4.cc^\ 4.ee-	.
4G^\ 4c 4e-	.	.
.	8cc\	.
4r	(8bn\L	.
.	8cc\J	.
=69	=69	=69
*^	*^	*
4r	2.G-X^\	4ee-^/) 4bb-	2.b-\	.
4B-/ 4c 4e-	.	4r	.	.
4B-/ 4c 4e-	.	4ee-/ 4bb-	.	.
*v	*v	*	*	*
*	*v	*v	*
=70	=70	=70
4F\	4.a^\ 4.ee- 4.aa	.
4A\ 4c 4e-	.	.
.	8ff\	.
4A\ 4c 4e-	8een\L	.
.	8ff\J	.
=71	=71	=71
.	(8qff/	.
4BB-/	4dd\) 4ccc	.
4F\ 4B- 4d	4r	.
4F\ 4B- 4d	4dd\ 4ff 4ccc	.
=72	=72	=72
8FF^:\ 8D: 8B-:	(8bb-\L	.
8r	8ff\	.
4r	8gg\	.
.	8aa\	.
4r	8bb-\	.
.	8ccc\J	.
!!LO:LB:g=original	!	!
=73	=73	=73
4BB-/	4dd\) 4bb- 4ddd	p
4F\ 4B- 4d	4r	.
4F\ 4B- 4d	4dd'\ 4bb- 4ddd	.
=74	=74	=74
4FF/	4aa\ 4ccc	.
4F\ 4B- 4d	4r	.
4F\ 4B- 4d	4gg\ 4bb-	.
=75	=75	=75
.	(8qaa/	.
4C/	4cc\) 4ccc	.
4F\ 4A 4e-	4r	.
4F\ 4A 4e-	4cc\ 4aa 4ccc	.
=76	=76	=76
4FF/	2.g^\ 2.ee- 2.gg	.
4F\ 4A 4e-	.	.
4F\ 4A 4e-	.	.
=77	=77	=77
.	(8qaa/	.
4C/	4cc\) 4ccc	.
4F\ 4c 4e-	4r	.
4F\ 4c 4e-	4cc\ 4aa 4ccc	.
=78	=78	=78
4FF/	4g^\ 4gg 4bb-	.
4F\ 4A 4e-	4r	.
4F\ 4A 4e-	4g\ 4ee- 4gg	.
=79	=79	=79
.	(8qgg/	.
4BB-/	4b-\) 4bb-	.
4F\ 4B- 4d	4r	.
4F\ 4B- 4d	4g\ 4gg 4bb-	.
=80	=80	=80
4FF/	2.dd\ 2.ff	.
4F\ 4B- 4d	.	.
4F\ 4B- 4d	.	.
=81	=81	=81
*	*^	*
4BB-/	4.dd/	2f^\	.
4F\ 4B- 4d	.	.	.
.	8dd/	.	.
4F\ 4B- 4d	[4dd/	4r	.
*	*v	*v	*
!!LO:LB:g=original	!	!
=82	=82	=82
4AA-X/	(4dd\]	.
4A-X\ 4B- 4d	4cc\	.
4A-\ 4B- 4d	4b-\)	.
=83	=83	=83
4GG/	2cc^\ 2ccc	f
4G\ 4B- 4e-	.	.
4G\ 4B- 4e-	4b-\ 4ee- 4bb-	.
=84	=84	=84
4FF#X/	2dd-X^\ 2ddd-X	.
4F#X\ 4B- 4en	.	.
4r	4b-\ 4bb-	.
=85	=85	=85
4FF/	4dd\ 4ff 4ddd	.
4F\ 4B- 4d	4r	.
!	!	!LO:HP:t=dim.
4F\ 4B- 4d	4ff\ 4fff	>
=86	=86	=86
4FF/	2dd\ 2ff 2ddd	.
4F\ 4A 4e-	.	.
4F\ 4A 4e-	4cc\ 4ff 4ccc	.
=87	=87	=87
*>B1	*>B1	*>B1
(4B-\	[2.b-\ [2.dd [2.bb-	.
4F\	.	.
4D\	.	.
=88	=88	=88
4BB-/)	8b-\L] 8dd] 8bb-]	.
.	8ff\	.
4r	8gg\	.
.	8aa\	.
4r	8bb-\	.
.	8ccc\J	.
=89:|!	=89:|!	=89:|!
*>B2	*>B2	*>B2
(4B-\	[2.b-\ [2.dd [2.bb-	.
4F\	.	.
4D\	.	.
=90	=90	=90
4BB-/)	4b-\] 4dd] 4bb-]	.
4r	4r	.
4r	4r	.
!!LO:LB:g=original	!	!
=91||	=91||	=91||
*>C	*>C	*>C
*	*^	*
!	!LO:TX:a:B:t=2.	!	!
2.BB-^\ 2.F 2.B-	2dd^/	2.d\ 2.f	.
.	4dd/	.	.
*	*v	*v	*
=92	=92	=92
2.GG^</ 2.D 2.En	(4d/ 4b- 4dd	.
.	4een\	.
.	4dd\)	.
=93	=93	=93
4AA^\ 4En 4A	4c#X^>/ 4a 4cc#X	.
4r	8a/L	.
.	8a/J	.
4r	[4a/	.
=94	=94	=94
2.A^\	4a/]	.
!	!LO:TX:b:i:t=riten.	!
.	4ee-\	.
.	4ff#X\	.
*kcancel	*kcancel	*
=95!|:	=95!|:	=95!|:
*k[f#c#]	*k[f#c#]	*
!LO:TX:b:t=[segno]	!LO:TX:a:t=[segno]	!
!	!LO:TX:a:i:t=a tempo	!
!	!LO:TX:b:i:t=legato	!
4D\	2.a/	p
4A\ 4d 4f#	.	.
4A\ 4d 4f#	.	.
=96	=96	=96
4AA/	2.b\	.
4A\ 4d 4f#	.	.
4A\ 4d 4f#	.	.
=97	=97	=97
4E\	[2.cc#\	.
4A\ 4c# 4g	.	.
4A\ 4c# 4g	.	.
=98	=98	=98
4AA/	4cc#\]	.
4A\ 4c# 4g	4.ee\	.
4A\ 4c# 4g	.	.
.	8ff#\	.
!!LO:PB:g=original	!	!
=99	=99	=99
4E\	2.b\	.
4A\ 4c# 4g	.	.
4A\ 4c# 4g	.	.
=100	=100	=100
4G\	2.cc#\	.
4A\ 4c# 4e	.	.
4A\ 4c# 4e	.	.
=101	=101	=101
4F#\	[2.cc#\	.
4A\ 4c# 4e	.	.
4A\ 4c# 4e	.	.
=102	=102	=102
4F#\	4cc#\]	.
4A\ 4d	4dd\	.
4A\ 4d	4ff#\	.
=103	=103	=103
4D\	(2a^\ 2aa	<
4F#\ 4A 4d	.	.
4F#\ 4A 4d	4dd\) 4ff#	.
=104	=104	=104
*	*^	*
4D#X\	(2a/ 2aa	4r	.
4A\ 4f#	.	4ccn\ 4ff#	.
4A\ 4f#	4b/) 4bb	4ryy	[
=105	=105	=105	=105
4E\	[<2.cc#/ [2.ccc#	4r	f
4A\ 4c# 4g	.	4gg\ 4aa	.
4A\ 4c# 4g	.	4gg\ 4aa	.
=106	=106	=106	=106
4AA/	(2cc#/] 2ccc#]	4r	.
4A\ 4c# 4g	.	4gg\ 4aa	.
4A\ 4c# 4g	4b/) 4bb	4ryy	.
*	*v	*v	*
=107	=107	=107
4E\	(2a^\ 2aa	.
4A\ 4c# 4g	.	.
4A\ 4c# 4g	4cc#\) 4ee	.
!!LO:LB:g=original	!	!
=108	=108	=108
4AA/	(2a\ 2aa	.
2A\ 2c# 2e#X	.	.
.	4b\) 4bb	.
=109	=109	=109
*	*^	*
4D\	[<2.a^/ [2.aa	4r	.
4A\ 4d 4f#	.	4dd\ 4ff#	.
4A\ 4d 4f#	.	4dd\ 4ff#	.
*	*v	*v	*
=110	=110	=110
4AA/	4a\] 4aa]	.
4r	4.ee\	.
4r	.	.
.	8ff#\	.
=111	=111	=111
4D\	2.a/	.
4A\ 4d 4f#	.	.
4A\ 4d 4f#	.	.
=112	=112	=112
.	(16qqb/LL	.
.	16qqcc#/JJ	.
4D#X\	4b\)	.
4A\ 4B#X 4f#	4.a/	.
4A\ 4B# 4f#	.	.
.	8b/	.
=113	=113	=113
4E\	[2.cc#\	.
4A\ 4c# 4g	.	.
4A\ 4c# 4g	.	.
=114	=114	=114
4AA/	4cc#\]	.
4A\ 4c# 4g	4.ee\	.
4A\ 4c# 4g	.	.
.	8ff#\	.
=115	=115	=115
4E\	2.b\	.
4A\ 4c# 4g	.	.
4A\ 4c# 4g	.	.
=116	=116	=116
*^	*	*
4r	2.G^\	(4cc#\	.
4A/ 4c# 4e	.	4b\	.
4A/ 4c# 4e	.	4a/)	.
!!LO:LB:g=original	!	!	!
=117	=117	=117	=117
*	*	*^	*
4r	2.F#^\	[2.aa^/	4r	.
4A/ 4d	.	.	4a\ 4dd 4ff#	.
4A/ 4d	.	.	4a\ 4dd 4ff#	.
*v	*v	*	*	*
=118	=118	=118	=118
4D^\ 4d	2.aa^/]	4r	.
4C#^\ 4c#	.	4a\ 4dd 4ff#	.
4Cn^\ 4cn	.	4a\ 4dd 4ff#	f
*	*v	*v	*
=119	=119	=119
4BB\ 4B	4aa#X\	.
4A\ 4B 4d#X	4.bb\	.
4A\ 4B 4d#	.	.
.	8gg\	.
=120	=120	=120
4D#X\	4ff#\	.
4A\ 4B 4d#X	4dd#X\	.
4A\ 4B 4d#	4b\	.
=121	=121	=121
4E\	(2b^:\ 2ee: 2aa:	.
4G\ 4B 4e	.	.
4G\ 4B 4e	[4gg\)	.
=122	=122	=122
4GG/	4gg\]	.
.	(8qg/	.
2B-X^\ 2d 2e	(4dd\)	.
.	4ee\)	.
=123	=123	=123
.	(8qa/	.
4AA/	(4ff#\)	p
4F#\ 4A 4d	4gg\	.
4F#\ 4A 4d	4aa\)	.
=124	=124	=124
4AA/	(2a\ 2ff#	.
4G\ 4A 4c#	.	.
4G\ 4A 4c#	4g\) 4ee	.
!!LO:LB:g=original	!	!
=125	=125	=125
*>C1	*>C1	*>C1
(4d\	[2.f#/ [2.a [2.dd	.
4A\	.	.
4F#\	.	.
=126	=126	=126
4D\)	4f#/] 4a] 4dd]	.
!	!LO:TX:b:i:t=rit.	!
4r	4.ee\	.
4r	.	.
.	8ff#\	.
=127:|!	=127:|!	=127:|!
*>C2	*>C2	*>C2
4d\	[2.f#/ [2.a [2.dd	.
4A\	.	.
4F#\	.	.
=128	=128	=128
4D\	4f#/] 4a] 4dd]	.
4r	4dd\	.
4r	4dd\	.
=129||	=129||	=129||
4d\	[2.f#/ [2.a [2.dd	.
4A\	.	.
4F#\	.	.
=130	=130	=130
4D\	4f#/] 4a] 4dd]	.
4r	4r	.
!	!LO:TX:b:i:t=Coda	!
4r	4dd\	.
*	*	*
!LO:TX:b:rj:t=[coda]	!LO:TX:a:rj:t=[coda]	!
=131!|:	=131!|:	=131!|:
*>D	*>D	*>D
4DD/	4.dd\	ff
4D\ 4G 4B	.	.
.	8dd\	.
4D\ 4G 4B	[4dd\	.
=132	=132	=132
4DD/	4dd\]	.
4D\ 4G 4B	8cc#\L	.
.	8dd\	.
4D\ 4G 4B	8gg\	.
.	8bb\J	.
!!LO:LB:g=original	!	!
=133	=133	=133
4DD/	4.dd\ 4.ddd	.
4F#\ 4A 4d	.	.
.	8dd\ 8ddd	.
4F#\ 4A 4d	[4dd^\ [4ddd	.
=134	=134	=134
4AA/	4dd\] 4ddd]	.
4F#\ 4A 4d	8ccc#\L	.
.	8eee\	.
4F#\ 4A 4d	8ddd\	.
.	8ff#\J	.
=135	=135	=135
4E\	4.aa^\	.
4A\ 4c# 4g	.	.
.	8a\ 8aa	.
4A\ 4c# 4g	4a\ [4aa	.
=136	=136	=136
4AA/	4aa\]	.
4A\ 4c# 4g	(8gg#X\L	.
.	8bb\	.
4A\ 4c# 4g	8aa\	.
.	8cc#\J	.
=137	=137	=137
4DD/ 4D	4.ee^\)	.
4F#\ 4A 4d	.	.
.	8dd\	.
4F#\ 4A 4d	[4dd\	.
=138	=138	=138
4F#^\ 4A 4d	4dd\]	.
4r	(8cc#\L	.
.	8ee\	.
4r	8dd\	.
.	8cc#\J	.
=139	=139	=139
4DD/	4.dd^\)	.
4D\ 4G 4B 4d	.	.
.	8dd\	.
4D\ 4G 4B 4d	[4dd\	.
=140	=140	=140
4DD/	4dd\]	.
4D\ 4G 4B-X 4d	(8cc#\L	.
.	8dd\	.
4D\ 4G 4B- 4d	8gg\	.
.	8bb-X\J)	.
!!LO:LB:g=original	!	!
=141	=141	=141
4DD/	4.ddd^\	.
4F#\ 4A 4d	.	.
.	8dd\ 8ddd	.
4F#\ 4A 4d	4dd\ 4ddd	.
=142	=142	=142
8GG#X:\ 8D: 8Fn: 8B:	8ffn^>\ 8gg#X 8fffny	ff
8r;	8r;	.
4r	8ccc#\L	p
.	8eee\	.
4r	8ddd\	.
.	8gg#X\J	.
=143	=143	=143
4AA/	4.b^\ 4.dd 4.bb	.
4F#\ 4A 4d	.	.
.	8a\ 8dd 8aa	.
4F#\ 4A 4d	4a\ 4dd [4aa	.
=144	=144	=144
4AA/	4aa\]	.
4G\ 4A 4c#	4a\ 4ff#	.
4G\ 4A 4c#	4g\ 4ee	.
=145	=145	=145
*>D1	*>D1	*>D1
(4d\	[2.f#/ [2.dd	.
4A\	.	.
4F#\	.	.
=146	=146	=146
4D\)	4f#/] 4dd]	.
4r	4dd^\	.
4r	4dd^\	.
=147:|!	=147:|!	=147:|!
*>D2	*>D2	*>D2
(4d\	[2.f#/ [2.a [2.dd	.
4A\	.	.
4F#\	.	.
=148	=148	=148
4D\)	4f#/] 4a] 4dd]	.
!	!LO:TX:b:i:t=rit.	!
4r	4ee\	.
!LO:TX:b:i:t=D.S. al Coda.	!	!
4r	4ff#\	.
!LO:TX:rj:b:t=[segno]	!LO:TX:rj:t=[segno]	!
!!LO:PB:g=original	!	!
=149||	=149||	=149||
*k[b-e-]	*k[b-e-]	*
*>E	*>E	*>E
!LO:TX:t=P:problem: błąd wyświetlania VHV - w źródle brak 'kcancel'	!LO:TX:t=P:problem: błąd wyświetlania VHV - w źródle brak 'kcancel'	!
!	!LO:TX:B:t=Coda.	!
!	!LO:TX:a:B:t=Lento.	!
2.D\ 2.F#X 2.A	2d/ 2dd	p
.	4d/ 4dd	.
=150	=150	=150
*	*	*^
!	!	!	!LO:HP:a
2.D\ 2.Fn 2.B-	4d/ 4dd	.	<
!	!	!LO:HP:b	!
.	4e-/ 4ee-	<	.
.	4en/ 4een	.	.
=151	=151	=151	=151
4C:\ 4F: 4A: 4e-:	4f:\ 4cc: 4ff:	.	.
4BB-:\ 4E-: 4G: 4c:	4g:\ 4cc: 4gg:	.	.
4GG-X:\ 4E-: 4B-:	4b-:\ 4ee-: 4bb-:	.	[
*	*	*v	*v
=152	=152	=152
4.FF:/ 4.C: 4.A:	4.cc\ 4.ee- 4.aa	.
8FF/ 8C 8F	8A/ 8c 8e- 8f	.
4FF^<;/ 4C 4F	4A^<;/ 4c 4e- 4f	.
=153||	=153||	=153||
!	!LO:TX:b:i:t=riten.	!
4F\	4d/	.
.	(8qf/	.
4G\	4e-/)	.
4F\	4d/	.
=154	=154	=154
*	*^	*
2.CC^/ 2.C	2.F^/ 2.f	4r	p
.	.	4A\ 4e-	.
.	.	4A\ 4e-	.
=155	=155	=155	=155
2.FFF^/ 2.FF	2.F^/ 2.f	4r	.
.	.	4A\ 4e-	.
.	.	4A\ 4e-	.
!!LO:LB:g=original	!	!	!
=156	=156	=156	=156
2.CC^/ 2.C	2.F^/ 2.f	4r	.
.	.	4A\ 4e-	.
.	.	4A\ 4e-	.
*	*v	*v	*
=157	=157	=157
2.FFF^/ 2.FF	4F/ 4f	<
.	4G/ 4g	.
.	4A/ 4a	.
=158	=158	=158
*	*^	*
2.BBB-^/ 2.BB-	2.B-^/ 2.b-	4r	.
.	.	4d\ 4f	.
.	.	4d\ 4f	[[
=159	=159	=159	=159
2.FFF^/ 2.FF	2.B-^/ 2.b-	4r	.
.	.	4d\ 4f	.
.	.	4d\ 4f	.
=160	=160	=160	=160
2.BBB-^/ 2.BB-	[<2.B-/ [2.b-	4r	.
.	.	4d\ 4f	.
.	.	4d\ 4f	.
=161	=161	=161	=161
2.FF/	4B-/] 4b-]	4r	.
.	(<8qdd/	.	.
.	4.cc/)	4d\ 4f	.
.	.	4d\ 4f	.
.	8b-/	.	.
=162	=162	=162	=162
2.CC^/ 2.C	2.A^/ 2.a	4r	.
.	.	4e-\ 4f	p
.	.	4e-\ 4f	.
=163	=163	=163	=163
2.FF^/	2.A^/ 2.a	4r	.
.	.	4e-\ 4f	.
.	.	4e-\ 4f	.
=164	=164	=164	=164
2.CC^/ 2.C	[<2.A/ [2.a	4r	<
.	.	4e-\ 4f	.
.	.	4e-\ 4f	.
*	*v	*v	*
=165	=165	=165
2.FF/	4A/] 4a]	.
.	4B-/ 4b-	.
.	4c/ 4cc	[
=166	=166	=166
*	*^	*
2.BBB-^/ 2.BB-	2.G^/ 2.g	4r	.
.	.	4B-\ 4d	.
.	.	4B-\ 4d	.
=167	=167	=167	=167
2.FFF^/ 2.FF	2.F^/ 2.f	4r	.
.	.	4B-\ 4d	p
.	.	4B-\ 4d	.
=168	=168	=168	=168
2.BBB-^/ 2.BB-	2.F^/ 2.f	4r	.
.	.	4B-\ 4d	.
.	.	4B-\ 4d	.
*	*v	*v	*
=169	=169	=169
!	!LO:TX:b:i:t=rit.	!
4F\	4d/	.
.	(8qf/	.
4G\	4e-/)	.
4F\	4d/	.
!!LO:LB:g=original	!	!
=170	=170	=170
*	*^	*
!	!LO:TX:i:t=a tempo	!	!
2.EE-^/ 2.E-	2.F^/ 2.f	4r	f
.	.	4A\ 4e-	.
.	.	4A\ 4e-	.
=171	=171	=171	=171
2.DD^/ 2.D	2.F^/ 2.f	4r	.
!	!	!LO:TX:b:Bi:t=cresc._ :problem:dynamics with line extensions	!
.	.	4G#X\ 4d	<
.	.	4G#\ 4d	.
=172	=172	=172	=172
2.CC^/ 2.C	([<2.F^/ 2.e-	4r	.
.	.	4A\ 4e-	.
.	.	4A\ 4e-	.
*	*v	*v	*
=173	=173	=173
2.FFF^/ 2.FF	4F/]) 4f	.
.	4G/ 4g	.
.	4A/ 4a	.
=174	=174	=174
*	*^	*
2.BBB-^/ 2.BB-	2.B-^/ 2.b-	4r	.
.	.	4d\ 4f	.
.	.	4d\ 4f	.
=175	=175	=175	=175
2.AAA^/ 2.AA	2.B-^/ 2.b-	4r	.
.	.	4d\ 4f	.
.	.	4d\ 4f	.
=176	=176	=176	=176
2.GGG^/ 2.GG	[<2.B-^/ [2.b-	4r	.
.	.	4d\ 4g	.
.	.	4d\ 4g	.
*	*v	*v	*
=177	=177	=177
2.FF^/	4B-/] 4b-]	[[
.	4.cc^\	f
.	8dd\	.
!!LO:PB:g=original	!	!
=178	=178	=178
4DD/	4a/	.
4F\ 4A 4d	4r	.
4F\ 4A 4d	[4a/	.
=179	=179	=179
4AA/	4a/]	.
4F\ 4A 4d	4.ee-\	.
4F\ 4A 4d	.	.
.	8ff\	.
=180	=180	=180
4DD/	4a^/	.
4F\ 4A 4d	4r	.
4F\ 4A 4d	[4a/	.
=181	=181	=181
4AA/	4a/]	.
!	!	!LO:HP:t=dim.
4F\ 4A 4d	4a/	>
4F\ 4A 4d	4b-\	.
=182	=182	=182
4AA/	4a/	.
4G\ 4A 4c#X	4en/	.
4G\ 4A 4c#	4g/	.
=183	=183	=183
4AA/	(2f/	.
4G\ 4A 4c#X	.	.
4G\ 4A 4c#	4e-/)	.
=184	=184	=184
4D\	2.d/	.
4F\ 4A 4d	.	.
4F\ 4A 4d	.	.
=185	=185	=185
*	*	*^
!	!	!LO:HP:b	!
2C:\ 2F: 2A: 2e-:	8r	<	.
.	8ff\L	.	.
.	8gg\	.	f
.	8aa\	.	.
4r	8bb-\	.	.
.	8ccc\J	[[	.
*	*	*v	*v
!!LO:PB:g=original	!	!
=186	=186	=186
4BB-/	4bb-'\ 4ddd	p
4F\ 4B- 4d	4r	.
4F\ 4B- 4d	4bb-'\ 4ddd	.
=187	=187	=187
4FF/	4aa'\ 4ccc	.
4F\ 4B- 4d	4r	.
4F\ 4B- 4d	4gg'\ 4bb-	.
=188	=188	=188
.	(8qaa/	.
4C/	4ccc'\)	.
4F\ 4A 4e-	4r	.
4F\ 4A 4e-	4aa'\ 4ccc	.
=189	=189	=189
4FF/	2.ee-\ 2.gg	.
4F\ 4A 4e-	.	.
4F\ 4A 4e-	.	.
=190	=190	=190
.	(8qaa/	.
4C/	4ccc\)	.
4F\ 4A 4e- 4f	4r	.
4F\ 4A 4e- 4f	4aa\ 4ccc	.
=191	=191	=191
4FF/	4gg\ 4bb-	.
4F\ 4A 4e-	4r	.
4F\ 4A 4e-	4ee-\ 4gg	.
=192	=192	=192
.	(8qgg/	.
4BB-/	4bb-\)	.
4F\ 4B- 4d	4r	.
4F\ 4B- 4d	4gg\ 4bb-	.
!!LO:LB:g=original	!	!
=193	=193	=193
4FF/	4.dd^\ 4.ff	.
4F\ 4B- 4d	.	.
.	8dd\	.
4F\ 4B- 4d	(8cc#X\L	.
.	8dd\J	.
=194	=194	=194
4BB-/	4gg\)	.
4r	4r	.
4F\ 4B- 4d	[4g^\ [4dd [4gg	.
=195	=195	=195
4BBn/	4g\] 4dd] 4gg]	.
4F\ 4G 4d	4.ff\	.
4F\ 4G 4d	.	.
.	8dd\	.
=196	=196	=196
.	(8qdd/	.
4C/	4ff\)	.
4G\ 4c 4e-	4r	.
4G\ 4c 4e-	4dd\ 4ff	.
=197	=197	=197
4BB-/	4.cc\ 4.ee-	.
4G^\ 4c 4e-	.	.
.	8cc\	.
4r	(8bn\L	.
.	8cc\J	.
=198	=198	=198
*^	*^	*
4r	2.G\	4ee-^/) 4bb-	2.b-\	.
4B-/ 4c 4e-	.	4r	.	.
4B-/ 4c 4e-	.	4ee-/ 4bb-	.	.
*v	*v	*	*	*
*	*v	*v	*
=199	=199	=199
4F\	4.a^\ 4.ee- 4.aa	.
4A\ 4c 4e-	.	.
.	8ff\	.
4A\ 4c 4e-	8een\L	.
.	8ff\J	.
!!LO:LB:g=original	!	!
=200	=200	=200
.	(8qff/	.
4BB-/	4dd\) 4ccc	.
4F\ 4B- 4d	4r	.
4F\ 4B- 4d	4dd\ 4ff 4ccc	.
=201	=201	=201
8FF^:\ 8D: 8B-:	8bb-\L	<
8r	8ff\	.
4r	8gg\	.
.	8aa\	.
4r	8bb-\	.
.	8ccc\J	[[
=202	=202	=202
4BB-/	4dd'\ 4bb- 4ddd	fp
4F\ 4B- 4d	4r	.
4F\ 4B- 4d	4dd'\ 4bb- 4ddd	.
=203	=203	=203
4FF/	4aa'\ 4ccc	.
4F\ 4B- 4d	4r	.
4F\ 4B- 4d	4gg'\ 4bb-	.
=204	=204	=204
.	(8qaa/	.
4C/	4cc\) 4ccc	.
4F\ 4A 4e-	4r	.
4F\ 4A 4e-	4cc\ 4aa 4ccc	.
=205	=205	=205
4FF/	2.g^\ 2.ee- 2.gg	.
4F\ 4A 4e-	.	.
4F\ 4A 4e-	.	.
=206	=206	=206
.	(8qaa/	.
4C/	4cc\) 4ccc	.
4F\ 4A 4e-	4r	.
4F\ 4A 4e-	4cc\ 4aa 4ccc	.
!!LO:LB:g=original	!	!
=207	=207	=207
4FF/	4b-\ 4gg 4bb-	.
4F\ 4A 4e-	4r	.
4F\ 4A 4e-	4g\ 4ee- 4gg	.
=208	=208	=208
.	(8qgg/	.
4BB-/	4b-\) 4bb-	.
4F\ 4B- 4d	4r	.
4F\ 4B- 4d	4b-\ 4gg 4bb-	.
=209	=209	=209
4FF/	2.dd\ 2.ff	.
4F\ 4B- 4d	.	.
4F\ 4B- 4d	.	.
=210	=210	=210
*	*^	*
4BB-/	4.dd^/	2.f\	.
4F\ 4B- 4d	.	.	.
.	8dd/	.	.
4F\ 4B- 4d	([4dd/	.	.
*	*v	*v	*
=211	=211	=211
4AA-X\ 4A-X	4dd\]	.
4A-\ 4B- 4d	4cc\	.
4A-\ 4B- 4d	4b-\)	.
=212	=212	=212
4GG/	2cc^\ 2ccc	f
4G\ 4B- 4e-	.	.
4G\ 4B- 4e-	4b-\ 4ee- 4bb-	.
=213	=213	=213
4FF#X/	2dd-X^\ 2ddd-X	.
4F#X^\ 4B- 4en	.	.
4r	4b-\ 4bb-	.
!!LO:LB:g=original	!	!
=214	=214	=214
4FF/	4dd\ 4ff 4ddd	.
4F\ 4B- 4d	4r	.
4F\ 4B- 4d	4ff\ 4fff	.
=215	=215	=215
4FF/	2dd;\ 2ff 2ddd	.
4F\ 4A 4e-	.	.
4F\ 4A 4e-	4cc\ 4ff 4ccc	.
=216	=216	=216
4BB-^\ 4B-	4dd^\ 4ff 4bb-	ff
4r	4r	.
4GG-X^/ 4G-X	4d-X^/ 4g-X 4b-	.
=217	=217	=217
4FF^/ 4F	4dn^/ 4f 4b-	.
4r	4r	.
4EEn^/ 4En	4d-X^/ 4g 4b-	.
=218	=218	=218
4FF^/ 4F	4dn^/ 4f 4b-	.
4r	4r	.
4r	4r	.
=219	=219	=219
4FF^:/ 4C: 4A:	4f^\ 4a 4ff	.
4r	4r	.
4r	4r	.
=220	=220	=220
4BBB-^/ 4BB-	4b-^\ 4dd 4bb-	.
4r	4r	.
!LO:TX:b:i:t=Fine.	!	!
4r	4r	.
==	==	==
*-	*-	*-
!!!system-decoration: {(s1,s2)}
!!!RDF**kern: > = above
!!!RDF**kern: < = below
!!!ENC: Anastazja Marusiak
!!!END: 2023-09-15
!!!EED: Jan Barakat
!!!EEV: 2023-09-28
